!!!COM: Clara Schumann
!!!CNT: Deutsch
!!!TXO: Deutsch
!!!OTL: Sie liebten sich beide
!!!LYR: Heine
!!!OPR: Sechs Lieder
!!!OPS: Op. 13
!!!ONM: No. 2
!!!ENC: Ben Fuhrman
!!!YOR: Frauen komponieren: 25 Lieder fu2r Singstimme und Klavier
!!!YOR: Mainz, B. Schott's So2hne, 1992.
!!!ODT: 1842
**kern	**silbe
*clef G2	*
*k[b-e-]	*
*M6/8	*
*MM[Nicht schnell]	*
=4	=4
4.r	.
4r	.
{8d	{Sie
=5	=5
8g	lieb-
8g	-ten
8b-	sich
4b-	bei-
8a	-de,
=6	=6
4r	.
8ee-	doch
4ee-	kei-
8dd	-ner
=7	=7
4.r	.
8ee-	wollt'
8dd	es
8cc	dem
=8	=8
8b-	an-
8a	-dem
8g	ge-
[4.dd	-stehn.
=9	=9
2.dd_	|
=10	=10
4dd]}	|}
8r	.
4r	.
{8d	{Sie
=11	=11
8.e-	sa-
16e-	-hen
8e-	sich
4e-	an
8e-	so
=12	=12
4.d	feind-
4d	-lich,
8g	und
=13	=13
(4g	woll-
8ee-)	|
4dd	-ten
8cc	vor
=14	=14
[4.dd	Lie-
8dd]	|
8a	-be
8b-	ver-
=15	=15
4.g}	-geh'n.}
4.r	.
!! Rest to measure 18
=18	=18
4.r	.
4r	.
{8d	{Sie
=19	=19
8.g	trenn-
16g	-ten
8b-	sich
4b-	end-
8a	-lich
=20	=20
4r	.
8ee-	und
4ee-	sah'n
8dd	sich
=21	=21
4.r	.
8ee-	nur
8dd	noch
8cc	zu-
=22	=22
8b-	-wei-
8a	-len
8g	im
[4.dd	Traum.
=23	=23
2.dd_	|
=24	=24
4dd]}	|}
8r	.
4r	.
{8d	{Sie
=25	=25
4e-	wa-
8e-	-ren
4e-	la2ngst
8e-	ge-
=26	=26
4.d	stor-
4d	-ben
8g	und
=27	=27
(4g	wuss-
8ee-)	|
4dd	-ten
8cc	es
=28	=28
[4.dd	sel-
8dd]	|
8cc	|
8b-	|
=29	=29
[2.g	kaum.
=30	=30
4g]}	|}
8r	.
4.r	.
==	==
*-	*-
